!!!OTL: ES LEBEN ALLE HOCH
!!!ARE: Europa, Mitteleuropa, Deutschland
!!!SCT: B0339
!!!YEM: Copyright 1995, estate of Helmut Schaffrath.
**kern
*ICvox
*Ivox
!! Mixed meters:  4/4; 3/8; 2/4
*M3/8
*k[f#]
*G:
{8d
=1
8g
8g
8g
8g
4g
8r}
{8a
=2
8b
8b
8b
8b
4b}
{8g
8b
=3
4dd
4b
4a
8g}
{8dd
=4
8b
8g
8dd
=5
8b
8g
8dd
=6
8b
8g
8dd
=7
8b
8g}
{8g
=8
8.ee
16ee
8ee
=9
4dd
8b
=10
8cc
8b
8a
=11
4g
8dd
=12
[4.b
=13
4b]}
{8d
=14
*M2/4
8g
8g
8g
8a
=15
*M3/8
8b
8g
8g}
=16
{8a
=17
*M2/4
8b
8b
8b
8cc
=18
8dd
8b
8b
8r}
=19
{8b
8b
8b
8b
=20
*M3/8
4b
8a}
=21
{8b
=22
*M2/4
8cc
8b
8a
8g
=23
4a
8g}
==
!!!AGN: Trink - Lied
!!!ONB: ESAC (Essen Associative Code) Database: BOEHME
!!!AMT: irregular
!!!AIN: vox
!!!EED: Helmut Schaffrath
!!!EEV: 1.0
*-
